X:1
T:Title
%%score { ( 1 4 5 ) | ( 2 3 ) }
L:1/8
M:9/8
K:E
V:1 treble nm="Grand Piano"
V:4 treble 
V:5 treble 
V:2 bass 
V:3 bass 
V:1
 z3 z3[Q:1/4=113] E2 F | G3- G2 G GA[GB] | [Ac]3 [GB]3 [GB][FA][EG] | %3
 [DF]3- [DF]2 [DF] [DF][EG][FA] |[M:3/4] G6 |[M:3/8] E2 F |[M:9/8] G3- G2 G GA[GB] | %7
 [Ac]3 [GB]3 [GB]A[B,EG] | [B,DF]3- [B,DF]2 [B,DF] .[B,DB]2 [A,DF] |[M:3/4] E6 | %10
[M:12/8] z3 [Ac]6- [Ac]2 z | .A3 [GB]6 [EG]3 | z3 [DF]6- [DF]2 z | [GB]2 [FA] G3- G6 | %14
 GA[EGB] [Ac]2- [EA-c-] [EA-c-]2 [EA-c-] [Ac]2 c | [ce]d[EAc] [GB]2- [EG-B-] [EGB]3 G3 | %16
 z3 [DF]6- [DF]2 z |[M:9/8] z3 E6- | E3 z3 z3 |] %19
V:2
 z3 z3 [E,G,]2 [E,A,E] | z3 z3 .E3 | [E,E]3 [E,E]3 [E,B,]2 [E,B,] | %3
 [B,,B,]3- [B,,B,]2 [B,,B,] [B,,B,]2 [B,,B,] |[M:3/4] [E,B,E]6 |[M:3/8] [E,G,]2 [E,A,E] | %6
[M:9/8] z3 z3 .E3 | [E,E]3 [E,E]3 z FE, | B,,3- B,,2 B,, z AB,, |[M:3/4] [E,G,]6 | %10
[M:12/8] EFE, A,2 A, A,2 A, A,2[K:treble] [A,EA] | .A,3[K:bass] z3 z6 | .[E,B,]3 z3 z6 | %13
 [B,,B,]2 [B,,B,] [E,B,E]3- [E,B,E]6 | EFE, A,2 A, A,2 A, z2[K:treble] A | .[A,E]3[K:bass] z3 z6 | %16
 .[E,B,]3 z3 z6 |[M:9/8] z AB,, z2 B, A,2 A, | G,3 z3 z3 |] %19
V:3
 x9 | [E,B,E]3- [E,B,E]2 [E,B,E] [E,B,]-[E,B,F][E,E] | x9 | x9 |[M:3/4] x6 |[M:3/8] x3 | %6
[M:9/8] [E,B,E]3- [E,B,E]2 [E,B,E] [E,B,]-[E,B,F][E,E] | z3 z3 .[E,B,]3 | z3 z3 .B,,3 |[M:3/4] x6 | %10
[M:12/8] .[E,B,]3 z3 z6[K:treble] | CD[K:bass]A, E,2 E, E,2 E, E,2 E, | %12
 z FE, B,,2 B,, B,,2 B,, B,,2 [B,,B,] | x12 | .[E,B,]3 z3 z3 A,3[K:treble] | %15
 z B[K:bass]A, E,2 E, E,3 [E,B,E]3 | z FE, B,,2 B,, B,,2 B,, B,,2 B,, |[M:9/8] .B,,3 E,6- | %18
 E,3 z3 z3 |] %19
V:4
 x9 | x9 | x9 | x9 |[M:3/4] x6 |[M:3/8] x3 |[M:9/8] x9 | x9 | x9 |[M:3/4] x6 | %10
[M:12/8] GA[EGB] E2 E E2 E E2 c | z B[EAc] E2 E E2 E B,2 B, | [GB]A[B,EG] B,2 B, B,2 B, B,2 [Ac] | %13
 x12 | z3 .E3 z3 E3 | z3 .E3 z6 | [GB]A[B,EG] B,2 B, B,2 B, z2 [DF] | %17
[M:9/8] .[B,DB]2 [A,B,F] [G,B,]2 =D C2 C | B,3 z3 z3 |] %19
V:5
 x9 | x9 | x9 | x9 |[M:3/4] x6 |[M:3/8] x3 |[M:9/8] x9 | x9 | x9 |[M:3/4] x6 |[M:12/8] x12 | x12 | %12
 x12 | x12 | x12 | x12 | z6 z3 B,3 |[M:9/8] x9 | x9 |] %19

